svgs/universalcopy.svg

<svg xmlns="http://www.w3.org/2000/svg" viewBox="0 0 192 192"><path d="M96 16.681A79.636 79.636 0 0 0 49.271 31.83a79.34 79.34 0 0 0-28.88 39.659 79.162 79.162 0 0 0 0 49.022 79.34 79.34 0 0 0 28.88 39.659A79.636 79.636 0 0 0 96 175.319a79.621 79.621 0 0 0 56.215-23.232A79.258 79.258 0 0 0 175.5 96a79.258 79.258 0 0 0-23.285-56.087A79.621 79.621 0 0 0 96 16.681Zm-28.196 63.78h72.681m-72.681 22.094h43.753" fill="none" stroke="#000" stroke-width="8" stroke-linecap="round" stroke-linejoin="round"/><path d="M121.2 114.322h9.872a9.892 9.892 0 0 1 6.982 2.885 9.846 9.846 0 0 1 2.891 6.965 9.843 9.843 0 0 1-4.936 8.531 9.888 9.888 0 0 1-13.487-3.605 9.843 9.843 0 0 1-1.322-4.926Zm-62.68-23.22v9.85a9.837 9.837 0 0 1-1.323 4.925 9.866 9.866 0 0 1-8.55 4.925 9.885 9.885 0 0 1-6.981-2.885 9.84 9.84 0 0 1-2.892-6.965 9.841 9.841 0 0 1 2.892-6.965 9.885 9.885 0 0 1 6.981-2.885Z" fill="none" stroke="#000" stroke-width="8" stroke-linecap="round" stroke-linejoin="round"/></svg>

<svg
    xmlns="http://www.w3.org/2000/svg"
    viewBox="0 0 192 192"
    id="vector">
    <path
        id="path"
        d="M 96 16.681 C 79.214 16.681 62.851 21.986 49.271 31.83 C 35.691 41.674 25.578 55.561 20.391 71.489 C 15.204 87.417 15.204 104.583 20.391 120.511 C 25.578 136.439 35.691 150.326 49.271 160.17 C 62.851 170.014 79.214 175.319 96 175.319 C 117.077 175.319 137.312 166.956 152.215 152.087 C 167.118 137.217 175.5 117.029 175.5 96 C 175.5 74.971 167.118 54.783 152.215 39.913 C 137.312 25.044 117.077 16.681 96 16.681 Z M 67.804 80.461 L 140.485 80.461 M 67.804 102.555 L 111.557 102.555"
        fill="none"
        stroke="#000000"
        stroke-width="8"
        stroke-linecap="round"
        stroke-linejoin="round"/>
    <path
        id="path_1"
        d="M 121.2 114.322 L 131.072 114.322 C 133.69 114.322 136.203 115.361 138.054 117.207 C 139.904 119.054 140.945 121.561 140.945 124.172 C 140.945 125.901 140.489 127.6 139.623 129.098 C 138.756 130.595 137.51 131.839 136.009 132.703 C 134.508 133.568 132.805 134.023 131.072 134.023 C 129.34 134.023 127.637 133.568 126.136 132.703 C 124.635 131.839 123.389 130.595 122.522 129.098 C 121.656 127.6 121.2 125.901 121.2 124.172 Z M 58.52 91.102 L 58.52 100.952 C 58.52 102.681 58.063 104.38 57.197 105.877 C 56.33 107.375 55.084 108.618 53.583 109.483 C 52.082 110.347 50.38 110.802 48.647 110.802 C 46.029 110.802 43.517 109.764 41.666 107.917 C 39.815 106.071 38.774 103.564 38.774 100.952 C 38.774 98.341 39.815 95.833 41.666 93.987 C 43.517 92.14 46.029 91.102 48.647 91.102 Z"
        fill="none"
        stroke="#000000"
        stroke-width="8"
        stroke-linecap="round"
        stroke-linejoin="round"/>
</svg>
